icons/workbox.svg

<!--
  - The MIT License (MIT)
  -
  - Copyright (c) 2015-2024 Elior "Mallowigi" Boukhobza
  -
  - Permission is hereby granted, free of charge, to any person obtaining a copy
  - of this software and associated documentation files (the "Software"), to deal
  - in the Software without restriction, including without limitation the rights
  - to use, copy, modify, merge, publish, distribute, sublicense, and/or sell
  - copies of the Software, and to permit persons to whom the Software is
  - furnished to do so, subject to the following conditions:
  -
  - The above copyright notice and this permission notice shall be included in all
  - copies or substantial portions of the Software.
  -
  - THE SOFTWARE IS PROVIDED "AS IS", WITHOUT WARRANTY OF ANY KIND, EXPRESS OR
  - IMPLIED, INCLUDING BUT NOT LIMITED TO THE WARRANTIES OF MERCHANTABILITY,
  - FITNESS FOR A PARTICULAR PURPOSE AND NONINFRINGEMENT. IN NO EVENT SHALL THE
  - AUTHORS OR COPYRIGHT HOLDERS BE LIABLE FOR ANY CLAIM, DAMAGES OR OTHER
  - LIABILITY, WHETHER IN AN ACTION OF CONTRACT, TORT OR OTHERWISE, ARISING FROM,
  - OUT OF OR IN CONNECTION WITH THE SOFTWARE OR THE USE OR OTHER DEALINGS IN THE
  - SOFTWARE.
  -
  -->

<svg  xmlns="http://www.w3.org/2000/svg" version="1.1" viewBox="0 0 512 512" width="16px" height="16px">
  <path fill="#FF8A65" data-iconColor="Workbox"
        d="M148.1016083,368.3325806l-23.3533325-7.094696l-1.182457-282.6051025l-53.801384,25.7182465l-2.9561157,240.33255l-19.2147827-5.9122314l-1.4780617-223.1870728L0,137.755188v236.489624l211.9538116,101.986145V35.7690506l-61.4872894,29.561203L148.1016083,368.3325806z M238.5588837,44.0461845v197.4688416L512,246.244812V128.2956085L238.5588837,44.0461845z M299.7505798,141.5981445l167.61203,32.2217102v18.9191742l-167.6119995-20.6928406C299.7506104,172.0461884,299.7506104,141.5981445,299.7505798,141.5981445z M238.5588837,270.4849854v197.7644348L512,383.7044067V265.7552185L238.5588837,270.4849854z M299.7505798,338.475769l167.61203-19.5104065v18.9191895l-167.6119995,31.0392456C299.7506104,368.9237976,299.7506104,338.475769,299.7505798,338.475769z"/>
</svg>

<svg xmlns="http://www.w3.org/2000/svg" viewBox="0 0 512 512"><path fill="#ff8a65" d="m148.102 368.333-23.354-7.095-1.182-282.605-53.802 25.718-2.956 240.333-19.214-5.913-1.479-223.187L0 137.755v236.49L211.954 476.23V35.769L150.467 65.33zm90.457-324.287v197.469L512 246.245v-117.95zm61.192 97.552 167.612 32.222v18.919L299.75 172.046zm-61.192 128.887v197.764L512 383.704V265.755zm61.192 67.99 167.612-19.51v18.92L299.75 368.924z" data-iconColor="Workbox"/></svg>
